images/mAMZN.svg

<svg height="250" viewBox="0 0 250 250" width="250" xmlns="http://www.w3.org/2000/svg"><g fill-rule="evenodd"><path d="m250 125c0 69.035156-55.964844 125-125 125s-125-55.964844-125-125 55.964844-125 125-125 125 55.964844 125 125zm0 0" fill="#fff"/><path d="m137.914062 115.824219h-.007812c0 8.691406.207031 15.914062-4.195312 23.644531-3.5625 6.28125-9.234376 10.140625-15.515626 10.140625-8.617187 0-13.640624-6.519531-13.640624-16.171875 0-18.988281 17.140624-22.445312 33.359374-22.445312zm39.933594 33.675781c-4.089844-5.628906-8.460937-10.214844-8.460937-20.660156v-34.730469c0-14.714844 1.035156-28.230469-9.878907-38.363281-8.597656-8.210938-22.863281-11.101563-33.773437-11.101563-21.335937 0-45.15625 7.914063-50.15625 34.128907-.539063 2.777343 1.511719 4.261718 3.351563 4.65625l21.726562 2.347656c2.042969-.105469 3.515625-2.09375 3.898438-4.105469 1.867187-9.023437 9.476562-13.382813 18.027343-13.382813 4.621094 0 9.867188 1.699219 12.597657 5.785157 3.144531 4.601562 2.71875 10.871093 2.71875 16.183593v2.890626c-13.003907 1.441406-30 2.40625-42.175782 7.726562-14.046875 6.03125-23.917968 18.335938-23.917968 36.429688 0 23.167968 14.699218 34.742187 33.578124 34.742187 15.949219 0 24.667969-3.738281 36.976563-16.203125 4.085937 5.855469 5.40625 8.707031 12.875 14.855469 1.652344.898437 3.804687.820312 5.285156-.519531l.058594.046874c4.464844-3.964843 12.605469-10.988281 17.199219-14.804687 1.824218-1.476563 1.519531-3.886719.070312-5.921875zm0 0"/><path d="m45.351562 176.382812c-1.632812-1.847656-.1875-4.367187 1.78125-2.933593 22.386719 16.316406 50.066407 26.144531 78.652344 26.144531 19.292969 0 40.492188-5.003906 60-15.386719 2.945313-1.574219 5.414063 2.441407 2.527344 5.097657-17.398438 16.085937-42.617188 24.648437-64.34375 24.648437-30.453125 0-57.855469-14.105469-78.617188-37.570313zm128.726563.316407c10.136719-7.078125 26.746094-5.03125 28.675781-2.660157 1.945313 2.382813-.511718 18.933594-10.015625 26.835938-1.460937 1.21875-2.84375.5625-2.199219-1.039062 2.136719-5.296876 6.921876-17.175782 4.65625-20.070313-2.257812-2.890625-14.960937-1.367187-20.675781-.691406-1.734375.214843-2.003906-1.289063-.441406-2.375zm0 0" fill="#f89500"/></g></svg>

<svg xmlns="http://www.w3.org/2000/svg" xmlns:xlink="http://www.w3.org/1999/xlink" width="250px" height="250px" viewBox="0 0 250 250" version="1.1">
<g id="surface1">
<path style=" stroke:none;fill-rule:evenodd;fill:rgb(100%,100%,100%);fill-opacity:1;" d="M 250 125 C 250 194.035156 194.035156 250 125 250 C 55.964844 250 0 194.035156 0 125 C 0 55.964844 55.964844 0 125 0 C 194.035156 0 250 55.964844 250 125 Z M 250 125 "/>
<path style=" stroke:none;fill-rule:evenodd;fill:rgb(0%,0%,0%);fill-opacity:1;" d="M 137.914062 115.824219 L 137.90625 115.824219 C 137.90625 124.515625 138.113281 131.738281 133.710938 139.46875 C 130.148438 145.75 124.476562 149.609375 118.195312 149.609375 C 109.578125 149.609375 104.554688 143.089844 104.554688 133.4375 C 104.554688 114.449219 121.695312 110.992188 137.914062 110.992188 Z M 177.847656 149.5 C 173.757812 143.871094 169.386719 139.285156 169.386719 128.839844 L 169.386719 94.109375 C 169.386719 79.394531 170.421875 65.878906 159.507812 55.746094 C 150.910156 47.535156 136.644531 44.644531 125.734375 44.644531 C 104.398438 44.644531 80.578125 52.558594 75.578125 78.773438 C 75.039062 81.550781 77.089844 83.035156 78.929688 83.429688 L 100.65625 85.777344 C 102.699219 85.671875 104.171875 83.683594 104.554688 81.671875 C 106.421875 72.648438 114.03125 68.289062 122.582031 68.289062 C 127.203125 68.289062 132.449219 69.988281 135.179688 74.074219 C 138.324219 78.675781 137.898438 84.945312 137.898438 90.257812 L 137.898438 93.148438 C 124.894531 94.589844 107.898438 95.554688 95.722656 100.875 C 81.675781 106.90625 71.804688 119.210938 71.804688 137.304688 C 71.804688 160.472656 86.503906 172.046875 105.382812 172.046875 C 121.332031 172.046875 130.050781 168.308594 142.359375 155.84375 C 146.445312 161.699219 147.765625 164.550781 155.234375 170.699219 C 156.886719 171.597656 159.039062 171.519531 160.519531 170.179688 L 160.578125 170.226562 C 165.042969 166.261719 173.183594 159.238281 177.777344 155.421875 C 179.601562 153.945312 179.296875 151.535156 177.847656 149.5 Z M 177.847656 149.5 "/>
<path style=" stroke:none;fill-rule:evenodd;fill:rgb(97.254902%,58.431375%,0%);fill-opacity:1;" d="M 45.351562 176.382812 C 43.71875 174.535156 45.164062 172.015625 47.132812 173.449219 C 69.519531 189.765625 97.199219 199.59375 125.785156 199.59375 C 145.078125 199.59375 166.277344 194.589844 185.785156 184.207031 C 188.730469 182.632812 191.199219 186.648438 188.3125 189.304688 C 170.914062 205.390625 145.695312 213.953125 123.96875 213.953125 C 93.515625 213.953125 66.113281 199.847656 45.351562 176.382812 Z M 174.078125 176.699219 C 184.214844 169.621094 200.824219 171.667969 202.753906 174.039062 C 204.699219 176.421875 202.242188 192.972656 192.738281 200.875 C 191.277344 202.09375 189.894531 201.4375 190.539062 199.835938 C 192.675781 194.539062 197.460938 182.660156 195.195312 179.765625 C 192.9375 176.875 180.234375 178.398438 174.519531 179.074219 C 172.785156 179.289062 172.515625 177.785156 174.078125 176.699219 Z M 174.078125 176.699219 "/>
</g>
</svg>
